X:3887
T:Madame Bonaparte Variation
O:england
P:8 + 12 bars
S:AA
M:4/4
L:1/8
R:Hornpipe
K:G
P:A
dc|"G"B2BA F3/2Bcd(3BAG|"C"c2cB (3cde(3cBA|(3"G"GDG(3BGB F3/2"Em"dBd(3gfe|
"Am"dcde F3/2"D7"ded(3cBA|"G"B2BA F3/2Bcd(3BAG|
(3"C"cGc(3ece F3/2gfg(3age|(3"G"GBd(3GBd F3/2"D7"DFA(3DFA|(3"G"GBd(3GBd F2:|
P:B
(3B_BA|"G"GBdf gfge|"D7"d3e dcBA|(3"G"GDG(3BGB F3/2"Em"dBd(3gfe|
"Am"dcde F3/2"D7"ded(3cBA|(3"G"GBd(3gdB F3/2GBd(3gdB|
(3"C"Gce(3gec F3/2"C"Gce(3gec|(3"G"GBd(3gdB F3/2GBd(3gdB|
(3"D7"Adf(3afd F3/2"D7"Adf(3afd|(3"G"GBd(3gdB F3/2GBd(3gdB|
(3"C"cGc(3ece F3/2gfg(3age|(3"G"GBd(3GBd F3/2"D7"DFA(3DFA|(3"G"GBd(3GBd F2:|


